usr/share/icons/biglinux-icons-material/16/actions/mail-signed-part.svg

<svg version="1.1" viewBox="0 0 16 16" xmlns="http://www.w3.org/2000/svg">
 <defs>
  <style id="current-color-scheme" type="text/css">.ColorScheme-Text {
        color:#363636;
      }
      .ColorScheme-PositiveText {
        color:#27ae60;
      }</style>
 </defs>
 <path class="ColorScheme-PositiveText" d="m14 8-4 4v2h2l4-4zm-0.311 1.689 0.592 0.592-1.688 1.688v0.016l-1.281 1.297-0.594-0.594z" fill="currentColor"/>
 <path d="m2 2c-1.108 0-2 0.892-2 2v8c0 1.108 0.892 2 2 2h7v-1h-7c-0.48888 0-0.87448-0.35406-0.96289-0.81641l4.4609-3.5508 1.1699 0.93164c0.73087 0.58201 1.9332 0.58201 2.6641 0l1.1699-0.93164 0.80859 0.64258 0.70312-0.70312-0.71875-0.57227 3.7051-2.9512v2.5371l1 1v-4.5859c0-1.108-0.892-2-2-2zm0 1h12c0.48888 0 0.87448 0.35406 0.96289 0.81641l-6.4238 5.1152c-0.30559 0.24335-0.77256 0.24335-1.0781 0l-6.4238-5.1152c0.088406-0.46235 0.47401-0.81641 0.96289-0.81641zm-1 2.0488 3.7051 2.9512-3.7051 2.9512z" style="fill:currentColor" class="ColorScheme-Text"/>
</svg>

<svg xmlns="http://www.w3.org/2000/svg" viewBox="0 0 16 16"><path fill="currentColor" d="m14 8-4 4v2h2l4-4zm-.311 1.689.592.592-1.688 1.688v.016l-1.281 1.297-.594-.594z" style="color:#27ae60"/><path d="M2 2C.892 2 0 2.892 0 4v8c0 1.108.892 2 2 2h7v-1H2a.983.983 0 0 1-.963-.816l4.461-3.551 1.17.931c.73.582 1.933.582 2.664 0l1.17-.931.808.642.704-.703-.72-.572L15 5.049v2.537l1 1V4c0-1.108-.892-2-2-2zm0 1h12c.489 0 .874.354.963.816L8.539 8.932a.887.887 0 0 1-1.078 0L1.037 3.816A.983.983 0 0 1 2 3zM1 5.049 4.705 8 1 10.951z" style="fill:currentColor;color:#dedede"/></svg>
